Flat-Remix-Dark/apps/scalable/help-browser.svg

<svg xmlns="http://www.w3.org/2000/svg" width="384pt" height="384pt" version="1.1" viewBox="0 0 384 384">
 <path d="m 192,85.75 c -58.67969,0 -106.25,47.57031 -106.25,106.25 0,58.67969 47.57031,106.25 106.25,106.25 58.67969,0 106.25,-47.57031 106.25,-106.25 C 298.25,133.32031 250.67969,85.75 192,85.75 Z m 0,12.5 c 51.77734,0 93.75,41.97266 93.75,93.75 0,51.77734 -41.97266,93.75 -93.75,93.75 -51.77734,0 -93.75,-41.97266 -93.75,-93.75 0,-51.77734 41.97266,-93.75 93.75,-93.75 z m 0,0" style="fill:#e6e6e6"/>
 <path d="m 104.5,23.25 c -45.011719,0 -81.25,36.238281 -81.25,81.25 v 175 c 0,45.01172 36.238281,81.25 81.25,81.25 h 175 c 45.01172,0 81.25,-36.23828 81.25,-81.25 v -175 c 0,-45.011719 -36.23828,-81.25 -81.25,-81.25 z m 3.24609,6.25 H 276.25391 C 319.59766,29.5 354.5,64.390625 354.5,107.73438 V 276.25391 C 354.5,319.59766 319.59766,354.5 276.25391,354.5 H 107.74609 C 64.402344,354.5 29.5,319.59766 29.5,276.25391 V 107.73438 C 29.5,64.390625 64.402344,29.5 107.74609,29.5 Z m 0,0" style="fill:#e15e5e"/>
 <path d="M 192,23.25 C 98.800781,23.25 23.25,98.800781 23.25,192 23.25,285.19922 98.800781,360.75 192,360.75 285.19922,360.75 360.75,285.19922 360.75,192 360.75,98.800781 285.19922,23.25 192,23.25 Z M 192,92 c 55.23047,0 100,44.77344 100,100 0,55.22656 -44.76953,100 -100,100 C 136.76953,292 92,247.22656 92,192 92,136.77344 136.76953,92 192,92 Z m 0,0" style="fill:#e6e6e6"/>
 <path d="m 192,60.75 c -72.48828,0 -131.25,58.76172 -131.25,131.25 0,72.48828 58.76172,131.25 131.25,131.25 72.48828,0 131.25,-58.76172 131.25,-131.25 C 323.25,119.51172 264.48828,60.75 192,60.75 Z M 192,92 c 55.22656,0 100,44.77344 100,100 0,55.22656 -44.77344,100 -100,100 C 136.77344,292 92,247.22656 92,192 92,136.77344 136.77344,92 192,92 Z m 0,0" style="fill:#ffffff"/>
 <path d="m 29.5,173.25 c 3.453125,0 6.25,2.79687 6.25,6.25 v 25 c 0,3.45312 -2.796875,6.25 -6.25,6.25 -3.453125,0 -6.25,-2.79688 -6.25,-6.25 v -25 c 0,-3.45313 2.796875,-6.25 6.25,-6.25 z m 0,0" style="fill:#bd9775"/>
 <path d="m 354.49609,173.25 c 3.45313,0 6.25,2.79687 6.25,6.25 v 25 c 0,3.45312 -2.79687,6.25 -6.25,6.25 -3.44922,0 -6.25,-2.79688 -6.25,-6.25 v -25 c 0,-3.45313 2.80078,-6.25 6.25,-6.25 z m 0,0" style="fill:#bd9775"/>
 <path d="m 179.5,23.25 c -3.46094,0 -6.25,2.789062 -6.25,6.25 0,3.460938 2.78906,6.25 6.25,6.25 h 25 c 3.46094,0 6.25,-2.789062 6.25,-6.25 0,-3.460938 -2.78906,-6.25 -6.25,-6.25 z m 0,325 c -3.46094,0 -6.25,2.78906 -6.25,6.25 0,3.46094 2.78906,6.25 6.25,6.25 h 25 c 3.46094,0 6.25,-2.78906 6.25,-6.25 0,-3.46094 -2.78906,-6.25 -6.25,-6.25 z m 0,0" style="fill:#bd9775"/>
 <path d="m 185.75,23.25 v 6.25 h 12.5 v -6.25 z m -162.5,162.5 v 12.5 h 6.25 v -12.5 z m 331.25,0 v 12.5 h 6.25 v -12.5 z M 185.75,354.5 v 6.25 h 12.5 v -6.25 z m 0,0" style="fill:#a1683a"/>
 <path style="opacity:0.3" d="M 256 112.66602 C 182.35939 112.66602 122.66602 172.36459 122.66602 246 C 122.66602 247.6749 122.7083 249.34006 122.76953 251 C 125.40016 179.68224 184.03441 122.66602 256 122.66602 C 327.9656 122.66602 386.59984 179.68224 389.23047 251 C 389.2917 249.34006 389.33398 247.6749 389.33398 246 C 389.33398 172.36459 329.64063 112.66602 256 112.66602 z M 31.064453 251 C 31.028171 252.66322 31 254.32808 31 256 C 31 380.26561 131.73438 481 256 481 C 380.26563 481 481 380.26561 481 256 C 481 254.32808 480.97183 252.66322 480.93555 251 C 478.27516 372.95522 378.5937 471 256 471 C 133.4063 471 33.724845 372.95522 31.064453 251 z" transform="scale(0.75)"/>
 <path style="fill:#ffffff;opacity:0.3" d="M 256 31 C 131.73438 31 31 131.73439 31 256 C 31 257.67192 31.028171 259.33678 31.064453 261 C 33.724845 139.04478 133.40631 41 256 41 C 378.5937 41 478.27515 139.04478 480.93555 261 C 480.97183 259.33678 481 257.67192 481 256 C 481 131.73439 380.26563 31 256 31 z M 122.76953 261 C 122.7083 262.65994 122.66602 264.3251 122.66602 266 C 122.66602 339.63543 182.35939 399.33398 256 399.33398 C 329.64063 399.33398 389.33398 339.63543 389.33398 266 C 389.33398 264.3251 389.2917 262.65994 389.23047 261 C 386.59984 332.31776 327.9656 389.33398 256 389.33398 C 184.03441 389.33398 125.40016 332.31776 122.76953 261 z" transform="scale(0.75)"/>
 <path d="m 86.164062,54.5 c -6.148437,0 -12.292968,2.355469 -17.003906,7.066406 l -1.34375,1.332032 c -9.421875,9.421874 -9.421875,24.597656 0,34.019531 l 25.515625,25.515621 c 9.421879,9.42188 24.597659,9.42188 34.019529,0 l 1.34375,-1.34375 c 9.42188,-9.42187 9.42188,-24.585934 0,-34.007809 L 103.17969,61.566406 C 98.46875,56.855469 92.3125,54.5 86.164062,54.5 Z m 211.671878,0 c -6.14844,0 -12.29297,2.355469 -17.00391,7.066406 l -25.51562,25.515625 c -9.42188,9.421875 -9.42188,24.585939 0,34.007809 l 1.34375,1.34375 c 9.42187,9.42188 24.58593,9.42188 34.00781,0 l 25.51562,-25.515621 c 9.42188,-9.421875 9.42188,-24.597657 0,-34.019531 l -1.33203,-1.332032 C 310.14062,56.855469 303.98437,54.5 297.83594,54.5 Z M 110.34766,248.25 c -6.14844,0 -12.304691,2.35547 -17.015629,7.06641 l -25.515625,25.51562 c -9.421875,9.42188 -9.421875,24.58594 0,34.00781 l 1.34375,1.34375 c 9.421875,9.42188 24.597656,9.42188 34.019534,0 l 25.51562,-25.51562 c 9.42188,-9.42188 9.42188,-24.59766 0,-34.01953 l -1.34375,-1.33203 C 122.64063,250.60547 116.49609,248.25 110.34766,248.25 Z m 163.3164,0 c -6.14844,0 -12.29297,2.35547 -17.0039,7.06641 l -1.34375,1.33203 c -9.42188,9.42187 -9.42188,24.59765 0,34.01953 l 25.51562,25.51562 c 9.42188,9.42188 24.59766,9.42188 34.01953,0 l 1.33203,-1.34375 c 9.42188,-9.42187 9.42188,-24.58593 0,-34.00781 L 290.66797,255.31641 C 285.95703,250.60547 279.8125,248.25 273.66406,248.25 Z m 0,0" style="fill:#fd4747"/>
</svg>

<svg xmlns="http://www.w3.org/2000/svg" width="384pt" height="384pt" version="1.1" viewBox="0 0 384 384"> <g> <path style="fill:rgb(90.196%,90.196%,90.196%)" d="M 192 85.75 C 133.320312 85.75 85.75 133.320312 85.75 192 C 85.75 250.679688 133.320312 298.25 192 298.25 C 250.679688 298.25 298.25 250.679688 298.25 192 C 298.25 133.320312 250.679688 85.75 192 85.75 Z M 192 98.25 C 243.777344 98.25 285.75 140.222656 285.75 192 C 285.75 243.777344 243.777344 285.75 192 285.75 C 140.222656 285.75 98.25 243.777344 98.25 192 C 98.25 140.222656 140.222656 98.25 192 98.25 Z M 192 98.25"/> <path style="fill:rgb(63.137%,41.960%,23.921%)" d="M 104.5 23.25 C 59.488281 23.25 23.25 59.488281 23.25 104.5 L 23.25 279.5 C 23.25 324.511719 59.488281 360.75 104.5 360.75 L 279.5 360.75 C 324.511719 360.75 360.75 324.511719 360.75 279.5 L 360.75 104.5 C 360.75 59.488281 324.511719 23.25 279.5 23.25 Z M 107.746094 29.5 L 276.253906 29.5 C 319.597656 29.5 354.5 64.390625 354.5 107.734375 L 354.5 276.253906 C 354.5 319.597656 319.597656 354.5 276.253906 354.5 L 107.746094 354.5 C 64.402344 354.5 29.5 319.597656 29.5 276.253906 L 29.5 107.734375 C 29.5 64.390625 64.402344 29.5 107.746094 29.5 Z M 107.746094 29.5"/> <path style="fill:rgb(90.196%,90.196%,90.196%)" d="M 192 23.25 C 98.800781 23.25 23.25 98.800781 23.25 192 C 23.25 285.199219 98.800781 360.75 192 360.75 C 285.199219 360.75 360.75 285.199219 360.75 192 C 360.75 98.800781 285.199219 23.25 192 23.25 Z M 192 92 C 247.230469 92 292 136.773438 292 192 C 292 247.226562 247.230469 292 192 292 C 136.769531 292 92 247.226562 92 192 C 92 136.773438 136.769531 92 192 92 Z M 192 92"/> <path style="fill:rgb(100.000%,100.000%,100.000%)" d="M 192 60.75 C 119.511719 60.75 60.75 119.511719 60.75 192 C 60.75 264.488281 119.511719 323.25 192 323.25 C 264.488281 323.25 323.25 264.488281 323.25 192 C 323.25 119.511719 264.488281 60.75 192 60.75 Z M 192 92 C 247.226562 92 292 136.773438 292 192 C 292 247.226562 247.226562 292 192 292 C 136.773438 292 92 247.226562 92 192 C 92 136.773438 136.773438 92 192 92 Z M 192 92"/> <path style="fill:rgb(99.215%,28.627%,28.627%)" d="M 86.164062 54.5 C 80.015625 54.5 73.871094 56.855469 69.160156 61.566406 L 67.816406 62.898438 C 58.394531 72.320312 58.394531 87.496094 67.816406 96.917969 L 93.332031 122.433594 C 102.753906 131.855469 117.929688 131.855469 127.351562 122.433594 L 128.695312 121.089844 C 138.117188 111.667969 138.117188 96.503906 128.695312 87.082031 L 103.179688 61.566406 C 98.46875 56.855469 92.3125 54.5 86.164062 54.5 Z M 297.835938 54.5 C 291.6875 54.5 285.542969 56.855469 280.832031 61.566406 L 255.316406 87.082031 C 245.894531 96.503906 245.894531 111.667969 255.316406 121.089844 L 256.660156 122.433594 C 266.082031 131.855469 281.246094 131.855469 290.667969 122.433594 L 316.183594 96.917969 C 325.605469 87.496094 325.605469 72.320312 316.183594 62.898438 L 314.851562 61.566406 C 310.140625 56.855469 303.984375 54.5 297.835938 54.5 Z M 110.347656 248.25 C 104.199219 248.25 98.042969 250.605469 93.332031 255.316406 L 67.816406 280.832031 C 58.394531 290.253906 58.394531 305.417969 67.816406 314.839844 L 69.160156 316.183594 C 78.582031 325.605469 93.757812 325.605469 103.179688 316.183594 L 128.695312 290.667969 C 138.117188 281.246094 138.117188 266.070312 128.695312 256.648438 L 127.351562 255.316406 C 122.640625 250.605469 116.496094 248.25 110.347656 248.25 Z M 273.664062 248.25 C 267.515625 248.25 261.371094 250.605469 256.660156 255.316406 L 255.316406 256.648438 C 245.894531 266.070312 245.894531 281.246094 255.316406 290.667969 L 280.832031 316.183594 C 290.253906 325.605469 305.429688 325.605469 314.851562 316.183594 L 316.183594 314.839844 C 325.605469 305.417969 325.605469 290.253906 316.183594 280.832031 L 290.667969 255.316406 C 285.957031 250.605469 279.8125 248.25 273.664062 248.25 Z M 273.664062 248.25"/> <path style="fill:rgb(74.117%,59.215%,46.666%)" d="M 29.5 173.25 C 32.953125 173.25 35.75 176.046875 35.75 179.5 L 35.75 204.5 C 35.75 207.953125 32.953125 210.75 29.5 210.75 C 26.046875 210.75 23.25 207.953125 23.25 204.5 L 23.25 179.5 C 23.25 176.046875 26.046875 173.25 29.5 173.25 Z M 29.5 173.25"/> <path style="fill:rgb(74.117%,59.215%,46.666%)" d="M 354.496094 173.25 C 357.949219 173.25 360.746094 176.046875 360.746094 179.5 L 360.746094 204.5 C 360.746094 207.953125 357.949219 210.75 354.496094 210.75 C 351.046875 210.75 348.246094 207.953125 348.246094 204.5 L 348.246094 179.5 C 348.246094 176.046875 351.046875 173.25 354.496094 173.25 Z M 354.496094 173.25"/> <path style="fill:rgb(74.117%,59.215%,46.666%)" d="M 179.5 23.25 C 176.039062 23.25 173.25 26.039062 173.25 29.5 C 173.25 32.960938 176.039062 35.75 179.5 35.75 L 204.5 35.75 C 207.960938 35.75 210.75 32.960938 210.75 29.5 C 210.75 26.039062 207.960938 23.25 204.5 23.25 Z M 179.5 348.25 C 176.039062 348.25 173.25 351.039062 173.25 354.5 C 173.25 357.960938 176.039062 360.75 179.5 360.75 L 204.5 360.75 C 207.960938 360.75 210.75 357.960938 210.75 354.5 C 210.75 351.039062 207.960938 348.25 204.5 348.25 Z M 179.5 348.25"/> <path style="fill:rgb(63.137%,41.960%,23.921%)" d="M 185.75 23.25 L 185.75 29.5 L 198.25 29.5 L 198.25 23.25 Z M 23.25 185.75 L 23.25 198.25 L 29.5 198.25 L 29.5 185.75 Z M 354.5 185.75 L 354.5 198.25 L 360.75 198.25 L 360.75 185.75 Z M 185.75 354.5 L 185.75 360.75 L 198.25 360.75 L 198.25 354.5 Z M 185.75 354.5"/> </g> </svg>
